X: 04036
T: JACKS #3
C: Bob McQuillen 17 July 79
B: Bob's Note Book 04 #36
%R: march, reel
Z: 2020 John Chambers <jc:trillian.mit.edu>
M: C
L: 1/8
K: Em	% and D
|: G3F E2D2 | E2F2 G2A2 | B3A G2B2 | d2ed B2A2 | G3F E2D2 | E3F  G2A2 | B2AG F2D2 | E4   E4 :|
|: d3B G2B2 | ABAG F2D2 | d3B G2B2 | A2BA G2E2 | d3B G2B2 | d2Bd e2d2 | B3A  G2AG | F2D2 E4 :|
K: D
|: d3c B2A2 | B2c2 d2e2 | f3e d2f2 | a2ba f2e2 | d3c B2A2 | B2c2 d2e2 | f2ed c2A2 | B2   B2 :|
|: a3f d2f2 | efed c2A2 | a3f d2f2 | e2fe d2B2 | a3f d2f2 | a2fa b2a2 | f3e  d2ed | c2A2 B4 :|
%%begintext align
%% Well, this tune is for what's-his-name down
%% there in Carlisle, Mass. -- O'Connor, that's it.
%% Jack O'Connor - Well anyway I hope he likes
%% _this_ tune - God knows I've tried hard enough.
%% This can't go on forever, ya know! With love to an
%% old friend.
%%endtext

%%sep 1 1 500

%%sep 1 1 500

